X:1
T:24 Arie Antiche
T:Sebben crudele
T:Sebben, crudele
T:Antonio Caldara (1670-1736) Alessandro Parisotti (1853-1913)
T:(24 Arie Antiche) Canzonetta
T:High voices, re minore.
T:Creative Commons copyright waiver (CC0 1.0 Universal)
T:Creative Commons copyright waiver (CC0 1.0 Universal)
T:Creative Commons copyright waiver (CC0 1.0 Universal)
T:Creative Commons copyright waiver (CC0 1.0 Universal)
T:Creative Commons copyright waiver (CC0 1.0 Universal)
T:Creative Commons copyright waiver (CC0 1.0 Universal)
T:Creative Commons copyright waiver (CC0 1.0 Universal)
T:Creative Commons copyright waiver (CC0 1.0 Universal)
C:Antonio Caldara (1670 - 1736)
Z:Creative Commons copyright waiver (CC0 1.0 Universal)
%%score 1 { ( 2 3 ) | 4 }
L:1/8
Q:1/4=84
M:3/4
K:F
V:1 treble nm="Voice"
V:2 treble nm="Piano"
V:3 treble 
V:4 bass 
V:1
"^ALLEGRETTO GRAZIOSO" z6 | z6 | z6 | z6 |!p!"^CANTO" A2 A2 d2 | (c3 B) A2 | B2 (GA) B2 | %7
w: ||||Seb- ben, cru-|de- * le,|mi fai * lan-|
 (!>!B2 A4) |"^cresc." ^F2 G2 A2 | (B3 A) G2 | E2 =F2 G2 |!<(! A2 B2 c2!<)! | %12
w: guir,.... *|sem- pre fe-|\- de- * le,|sem- pre fe-|de- le ti|
!>(! (BA) A2[Q:1/4=75] (GF)!>)! |[Q:1/4=92] F6 | z6 | z6 | z6 | z6 |!mf! (A2 =B2 c2) | %19
w: vo- * glio a- *|mar.|||||Seb- ben, cru-|
 (!>!c4 =B2) |"^cresc." (=B2 ^c2 d2) | (!>!d4 ^c2) |!f! d2 (!>!dc) (!>!c_B) | (B A2) G!>(! (FE) | %24
w: de- le,|mi fai lan-|guir,.............. *|sem- pre * fe- *|de- * le ti *|
[Q:1/4=80]"^rit. assai" F2{EF} E3!>)! D | D6[Q:1/4=90] |!mf! (A2 =B2 c2) | (!>!c4 =B2) | %28
w: vo- glio.... a-|mar.|Seb- ben, cru-|de- le,|
"^cresc." (=B2 ^c2 d2) | (!>!d4 ^c2) |!f! d2 (!>!d=c) (!>!c_B) | (B!>(! A2) G (FE) | %32
w: mi fai lan-|guir,................ *|sem- pre * fe- *|de- * le ti *|
[Q:1/4=76]"^rit. assai" F2{EF} E3 D!>)! | D6[Q:1/4=90] |!p! (A2 A2 B2) | c4 F2 | B2 (Bc) (AB) | %37
w: vo- glio.... a-|mar.|Con la lun-|ghez- za|del mio * ser- *|
 G6 |!f! !>!c2 !>!e2 !>!c2 | !>!A4 A2 | !>!=B2 !>!d2 !>!B2 | ^G4 E2 |!>(! (A=B) c2 (BA)!>)! | A6 | %44
w: vir|la tua fie-|rez- za,,|la tua fie-|rez- za|sa- * prò stan- *|car|
 !>!d2 !>!=B2 !>!A2 | ^G4 E2 |[Q:1/4=80]"^rit." (A=B) c2{Bc} B>A | A6 |[Q:1/4=90] z6 | z6 | z6 | %51
w: la tua fie-|rez- za|sa- * prò stan- *|car.||||
 z6 |!p! A2 A2 d2 | (c3 B) A2 | B2 (GA) B2 | (!>!B2 A4) |"^cresc." ^F2 G2 A2 | (B3 A) G2 | %58
w: |Seb- ben, cru-|de- * le,|mi fai _ lan-|guir,...... *|Sem- pre fe-|de- * le,|
"^cresc." E2 =F2 G2 |!<(! A2 B2 c2!<)! |!>(! (BA) A2"^rit."[Q:1/4=80] (G!>)!F) |[Q:1/4=90] F6 | %62
w: sem- pre fe-|de- le ti|vo- * glio a- *|mar.|
 z6 | z6 | z6 | z6 |!mf! (A2 =B2 c2) | (!>!c4 =B2) |"^cresc." (=B2 ^c2 d2) | (!>!d4 ^c2) | %70
w: ||||Seb- ben, cru-|de- le,|mi fai lan-|guir,.............. *|
!f! d2 (!>!d=c) (!>!cB) | (B A2)!>(! G (FE) |[Q:1/4=80]"^rit. assai" F2{EF} E3 D!>)! | %73
w: sem- pre * fe- *|\- de- * le ti *|vo- glio.... a-|
[Q:1/4=90] D6 |!mf! A2 =B2 c2 | (!>!c4 =B2) |"^cresc." (=B2 ^c2 d2) | (!>!d4 ^c2) | %78
w: mar,|seb- ben, cru-|de- le,|mi fai lan-|\- guir,.............. *|
!f! d2 (!>!d=c) (!>!cB) | (B A2)!>(! G (FE) |[Q:1/4=80]"^rit. assai" F2{EF} E !>!A3!>)! | %81
w: sem- pre * fe- *|de- * le ti _|vo- glio... a-|
[Q:1/4=70]!p! D6- | D6 |] %83
w: mar.||
V:2
 !>!A2 !>!A2 !>!d2 | (!>!c3 B A2) | (!>!B2 G!p!!>(!A B2) | (!>!B2 A4)!>)! | z (D[FA]D[Fd]D) | %5
 z (C[Fc]C[FA]C) | z (C[FGB]C[EGB]C) | (!>![EGB]C[FA]C[FA]C) | ([D^F]A,[DG]G,[DA]C) | %9
 ([DB]B,[DB]B,[DG]B,) | ([CE]G,[CF]F,[CG]B,) |!<(! ([CA]A,[EG]B,[CF]A,)!<)! | %12
!>(! ([B,DF]G,[CF]A,[CE]B,)!>)! | [A,F]!<(!(F,A,CF!<)!G) | !>!A2 !>!A2 !>!B2 | (c3 B A2) | %16
 (!>!B2!p! GA [GB]2) | (!>![GB]2 A4) | (A2 =B2 c2) | (!>!c4 =B2) | =B2 ^c2 d2 | (d4 ^c2) | %22
 d3 =c2 _B- | B A2 G FE | F2 E3 D | [A,D][I:staff +1](A,!<(![I:staff -1]DEF!<)!G) | A2 =B2 c2 | %27
 (!>!c4 =B2) |"_cresc." =B2 ^c2 d2 | (!>!d4 ^c2) |!f! d2 d=c-c_B- | B A2 GFE | [B,DF]2 E3 D | %33
 [A,D]!<(![I:staff +1](A,[I:staff -1]DEF!<)!G) | z (D[FA]D[FB]D) | z (C[Fc]C[Fc]C) | %36
 z (C[GB]C[FA]C) | ([EG]C[EG]!<(!C[G=B]F)!<)! | !>!c2 !>!e2 !>!c2 | !>!A2 !>!c2 !>!A2 | %40
 !>!=B2 !>!d2 !>!B2 | !>!^G2 !>!=B2 !>!A2 | !>!A2 !>!A2 !>!^G2 | A2 A2 A2 | !>!d2 !>!=B2 !>!A2 | %45
 !>!^G2 !>!=B2 !>!A2 | A2 A2 ^G2 | ([CA]A,C!<(!D Ec)!<)! |!f! !>!A2 !>!A2 !>!d2 | (!>!c3 B A2) | %50
 (!>!B2!>(! G!p!A B2) | (B2 A4)!>)! | z (D[FA]D[Fd]D) | z (C[Fc]C[FA]C) | z (C[FGB]C[EGB]C) | %55
 ([EGB]C[FA]C[FA]C) | ([D^F]A,[DG]G,[DA]C) | ([DB]B,[DB]B,[DG]B,) | ([CE]G,[CF]F,[CG]B,) | %59
!<(! ([CA]A,[EG]B,[CF]A,)!<)! |!>(! [B,DF]G,[CF]A,[CE]!>)!B, | %61
"^a tempo" [A,F][I:staff +1](F,!<(![I:staff -1]A,CFG)!<)! | !>!A2 !>!A2 !>!B2 | (!>!c3 B A2) | %64
 (!>!B2 GA [GB]2) | (!>![GB]2 A4) |!mf! A2 =B2 c2 | (!>!c4 =B2) | =B2 ^c2 d2 | (d4 ^c2) | %70
 d2- d=c- cB- | B A2 G FE | [B,DF]2 E3 D | [A,D][I:staff +1](A,[I:staff -1]DEFG) | A2 =B2 c2 | %75
 (!>!c4 =B2) |"_cresc." =B2 ^c2 d2 | (!>!d4 ^c2) | d2- d=c- cB- | B A2 G FE | F2 E3 D | %81
 [A,D][I:staff +1](A,!>(![I:staff -1]DEFA!>)! |!pp! d6) |] %83
V:3
 (FDFDFD) | (FCFCFC) | (FCECEC) | (ECFCFC) | x6 | x6 | x6 | x6 | x6 | x6 | x6 | x6 | x6 | x6 | %14
 (FCFCFD) | (FCFCFC) | ([FG]CECEC) | (ECFCFC) | (FCF=B,FA,) | z (DGDGD) | (GDG^CG=B,) | z (EAEAE) | %22
 (DAGEFD) | E2 A,2 [A,D]2 | [B,D]2 D2 [A,^C]2 | x6 | (FCF=B,FA,) | z (DGDGD) | (GDG^CG=B,) | %29
 z (EAEAE) | DA(GE)(FD) | E2 A,2 [A,D]2 | x2 D2 [A,^C]2 | x6 | x6 | x6 | x6 | x6 | ([EG]EGEGE) | %39
 (FCFCFC) | (FDFDFD) | (E=B,EB,EC) | (F=B,ECDB,) | (A,CFCFC) | (FDFDFD) | (E=B,EB,EC) | %46
 (F=B,ECDB,) | x6 | (FDFDFD) | (FCFCFC) | (FCECEC) | (ECFCFC) | x6 | x6 | x6 | x6 | x6 | x6 | x6 | %59
 x6 | x6 | x6 | (F!f!CFCFC) | (FCFCF!p!C) | ([FG]CECEC) | (ECFCFC) | (FCF=B,FA,) | z (DGDGD) | %68
 (GDG^CG=B,) | z (EAEAE) | (DA(GE)(FD)) | E2 A,2 [A,D]2 | x2 D2 [A,^C]2 | x6 | (FCF=B,FA,) | %75
 z (DGDGD) | (GDG^CG=B,) | z EAEAE | DA(GE)(FD) | E2 A,2 [A,D]2 | [B,D]2 D2 [A,^C]2 | x6 | x6 |] %83
V:4
!f! (D,4 B,,2 | A,,4 F,,2 | G,,4 C,2 | F,,6) |!p! (D,4 B,,2 | A,,4 F,,2 | G,,2 C,2) (C,,2 | F,,6 | %8
 D,2 B,,2 ^F,,2 | G,,4) B,,2 | C,2 A,,2 E,,2 | F,,2 G,,2 A,,2 | B,,2 C,2 C,,2 | F,,6 | (D,4 B,,2 | %15
 A,,4 F,,2 | G,,4 C,2 | F,,6) | %18
!mf!"_Bien que cruel, tu me fais languir,\nToujours fidèle je désire t’aimer.\nPar la durée de ma servitude,\nTa fierté, je la saurai lasser."!<(! F,6!<)! | %19
 G,6 |"^cresc." G,6 | A,6 |!f! F,2 E,2 D,2 | ^C,4 D,2 |"^rit. assai" G,2 A,2 [A,,G,]2 | %25
 !arpeggio![D,,A,,F,]6 |!mf! F,6 | G,6 |!<(! G,6 | A,6!<)! | F,2 E,2 D,2 | ^C,4 D,2 | %32
"^rit. assai" G,2 A,2 [A,,G,]2 | !arpeggio![D,,A,,F,]6 |!p! (D,4 B,,2) | A,,6 | (G,,2 E,,2 F,,2 | %37
 C,2) C,2 D,2 |!f! E,6 | !>!F,2 !>!A,2 !>!F,2 | D,6 | !>!E,2 !>!D,2 !>!C,2 | (D,2 E,2 E,,2 | %43
 F,,2) (!>!F,2 E,2) | D,6 | !>!E,2 !>!D,2 !>!C,2 |"^rit." (D,2 E,2 E,,2 | %47
"^a tempo""^rit......................." A,,6) | (F,4 B,,2 | A,,4 F,,2 | G,,4 C,2 | F,,6) | %52
!p! (D,4 B,,2 | A,,4 F,,2 | G,,2 C,2 C,,2 | F,,6) |"^cresc." (D,2 B,,2 ^F,,2 | G,,4 B,,2 | %58
"^cresc." C,2 A,,2 E,,2 | F,,2 G,,2 A,,2 | B,,2 C,2"^rit." C,,2 | F,,6) | (D,4 B,,2 | A,,4 F,,2 | %64
 G,,4 C,2 | F,,6) | F,6 | G,6 | G,6 | A,6 |!f! F,2 E,2 D,2 | ^C,4 D,2 | %72
"^rit. assai" G,2 A,2 [A,,G,]2 | !arpeggio![D,,A,,F,]6 |!mf! F,6 | G,6 | G,6 | A,6 | %78
!f! F,2 E,2 D,2 | ^C,4 D,2 |"^rit. assai" G,2 A,2 [A,,G,]2 | %81
"^rit. assai"!ped! !arpeggio![D,,A,,F,]6- | [D,,A,,F,]6!ped-up! |] %83

